app/img/right-arrow.svg

<svg width="92" height="27" viewBox="0 0 92 27" fill="none" xmlns="http://www.w3.org/2000/svg">
<path d="M91.5516 14.6787L82.3475 25.8691C82.0518 26.2272 81.6822 26.4062 81.3125 26.4062C80.9429 26.4062 80.5732 26.2272 80.2775 25.8691C79.6861 25.1529 79.6861 24.0339 80.2775 23.3177L86.9681 15.1711H65.3809C64.5677 15.1711 63.9023 14.3654 63.9023 13.3806C63.9023 12.3959 64.5677 11.5901 65.3809 11.5901H86.9681L80.2775 3.44354C79.6861 2.72735 79.6861 1.60831 80.2775 0.89212C80.8689 0.175934 81.7931 0.175934 82.3845 0.89212L91.5886 12.0825C92.1431 12.8435 92.1431 14.0073 91.5516 14.6787Z" fill="#FF5722"/>
<rect x="0.314453" y="11.1875" width="88.7142" height="4.47534" rx="2.23767" fill="#FF5722"/>
</svg>

<svg width="92" height="27" fill="none" xmlns="http://www.w3.org/2000/svg"><path d="M91.552 14.679l-9.205 11.19c-.295.358-.665.537-1.034.537-.37 0-.74-.179-1.035-.537-.592-.716-.592-1.835 0-2.551l6.69-8.147H65.381c-.813 0-1.479-.806-1.479-1.79 0-.985.666-1.79 1.479-1.79h21.587l-6.69-8.147c-.592-.717-.592-1.836 0-2.552.59-.716 1.515-.716 2.106 0l9.205 11.19c.554.761.554 1.925-.037 2.597z" fill="#FF5722"/><rect x=".314" y="11.188" width="88.714" height="4.475" rx="2.238" fill="#FF5722"/></svg>
